X:1
T:Since Jesus Came into My Heart
T:Since Jesus Came into My Heart
T:Charles Hutchinson Gabriel
T:Rufus Henry McDaniel, 1914
T:Public Domain Courtesy of the Cyber Hymnal™
T:Public Domain Courtesy of the Cyber Hymnal™
C:Charles Hutchinson Gabriel
Z:Public Domain
Z:Courtesy of the Cyber Hymnal™
%%score ( 1 2 ) ( 3 4 )
L:1/8
Q:1/4=102
M:4/4
K:A
V:1 treble 
V:2 treble 
V:3 bass 
V:4 bass 
V:1
 [A,C][B,D] | [CE]2 [DF][DG] [CA]2 [CA][DB] | [Ec]2 [Ec][Fd] [Ec]3 [EB] | %3
w: 1.~What a|won- der- ful change in my|life has been wrought Since|
w: 2.~I have|ceased from my wan- dering and|go- ing a- stray, Since|
w: 3.~I’m pos-|sessed of a hope that is|stead- fast and sure, Since|
w: 4.~There’s a|light in the val- ley of|death now for me, Since|
w: 5.~I shall|go there to dwell in that|ci- ty, I know, Since|
 [FA] [FA]2 [DF] [FA] [FA]2 [DA] | [CE]6 [A,C][B,D] | [CE]2 [DF][DG] [CA]2 [CA][DB] | %6
w: Je- sus came in- to my|heart! I have|light in my soul for which|
w: Je- sus came in- to my|heart! And my|sins, which were ma- ny, are|
w: Je- sus came in- to my|heart! And no|dark clouds of doubt now my|
w: Je- sus came in- to my|heart! And the|gates of the ci- ty be-|
w: Je- sus came in- to my|heart! And I’m|hap- py, so hap- py, as|
 [Ec]2 [Ec][Fd] [Ec]3 [Ec] | [^Dc] [DB]2 [DB] [A^d] [Ad]2 B | e4- [Be]2 ||"^Refrain" [Ge]2 | %10
w: long I had sought, Since|Je- sus came in- to my|heart! *||
w: all washed a- way, Since|Je- sus came in- to my|heart! *||
w: path- way ob- scure, Since|Je- sus came in- to my|heart! Since||
w: yond I can see, Since|Je- sus came in- to my|heart! *||
w: on- ward I go, Since|Je- sus came in- to my|heart! *||
 [Ec] [Ec]2 [DB] c(c-[Ec])[CA] | c6 !fermata![EB]2 | [FA] [FA]2 [DF] A(A-[DA])[DA] | %13
w: |||
w: |||
w: Je- sus came in- to * my|heart, Since|Je- sus came in- to * my|
w: |||
w: |||
 E6 [A,C][B,D] | [CE]2 [DF][DG] [CA]2 [EA][EB] | [Ec]2 [Ec][Ed] !fermata![Ae]2 [Fd]2 | %16
w: |||
w: |||
w: heart, Floods of|joy o’er my soul Like the|sea bil- lows roll, Since|
w: |||
w: |||
 [Ec] [Ec]2 [CA] [Ec] [Ec]2 [DB] | [CA]6 |] %18
w: ||
w: ||
w: Je- sus came in- to my|heart.|
w: ||
w: ||
V:2
 x2 | x8 | x8 | x8 | x8 | x8 | x8 | x7 A | G2 A2 x2 || x2 | x4 E2 x2 | (E E2 E E2) x2 | x4 F2 x2 | %13
 (C C2 C C2) x2 | x8 | x8 | x8 | x6 |] %18
V:3
 [A,,E,][A,,E,] | [A,,A,]2 [A,,A,][A,,A,] [A,,E,]2 [A,,E,][A,,E,] | %2
 [A,,A,]2 [A,,A,][A,,A,] [A,,A,]3 [C,A,] | [D,D] [D,D]2 [D,A,] [D,D] [D,D]2 [F,A,] | %4
 A,6 [A,,E,][A,,E,] | [A,,A,]2 [A,,A,][A,,A,] [A,,E,]2 [A,,E,][A,,E,] | %6
 [A,,A,]2 [A,,A,][A,,A,] [A,,A,]3 [A,,A,] | [B,,A,] [B,,A,]2 [B,,A,] [B,,A,] [B,,A,]2 [^D,B,] | %8
 (B,2 C2 [E,D]2) || [E,B,]2 | [A,,A,] [A,,A,]2 [A,,A,] [A,,A,]2 [A,,E,]2 | %11
 ([A,,A,] [A,,A,]2 [A,,A,] !fermata![A,,A,]2) !fermata![C,A,]2 | %12
 [D,D] [D,D]2 [D,A,] [D,D]2 [F,A,]2 | A, ([E,A,]2 [C,A,] [A,,A,]2) [A,,E,][A,,E,] | %14
 [A,,A,]2 [A,,A,][A,,A,] [A,,E,]2 [C,A,][E,G,] | A,2 A,[A,B,] !fermata![A,C]2 [D,A,]2 | %16
 [E,A,] [E,A,]2 [E,A,] [E,A,] [E,A,]2 E, | [A,,E,]6 |] %18
V:4
 x2 | x8 | x8 | x8 | A,6 x2 | x8 | x8 | x8 | E,4- x2 || x2 | x8 | x8 | x8 | A, x7 | x8 | %15
 A,2 A, x5 | x8 | x6 |] %18

